packages/kaspersky-hexa-ui-icons/src/iconsSVGs/16/Save.svg

<svg width="16" height="16" viewBox="0 0 16 16" fill="none" xmlns="http://www.w3.org/2000/svg">
<path fill-rule="evenodd" clip-rule="evenodd" d="M11.5368 1.11621H2.7501C1.83883 1.11621 1.1001 1.85494 1.1001 2.76621V13.2339C1.1001 14.1452 1.83883 14.8839 2.7501 14.8839H13.2501C14.1614 14.8839 14.9001 14.1452 14.9001 13.2339V4.55007C14.9001 4.38057 14.8339 4.21777 14.7156 4.09638L12.0022 1.31252C11.8799 1.187 11.712 1.11621 11.5368 1.11621ZM2.7501 2.41621C2.5568 2.41621 2.4001 2.57291 2.4001 2.76621V13.2339C2.4001 13.4272 2.5568 13.5839 2.7501 13.5839H4.09583V8.87973C4.09583 8.29983 4.56593 7.82973 5.14583 7.82973H10.8063C11.3862 7.82973 11.8563 8.29983 11.8563 8.87973V13.5839H13.2501C13.4434 13.5839 13.6001 13.4272 13.6001 13.2339V4.81444L11.2626 2.41621H11.1169V4.30465C11.1169 4.88455 10.6468 5.35465 10.0669 5.35465H5.14582C4.56593 5.35465 4.09583 4.88455 4.09583 4.30465V2.41621H2.7501ZM5.39583 2.41621H9.81686V4.05465H5.39583V2.41621ZM5.39583 9.12973V13.5839H10.5563V9.12973H5.39583Z" fill="black"/>
</svg>

<svg xmlns="http://www.w3.org/2000/svg" width="16" height="16" fill="none" viewBox="0 0 16 16"><path fill="#000" fill-rule="evenodd" d="M11.5365 1.116H2.7499c-.9113 0-1.65.7388-1.65 1.65v10.4678c0 .9113.7387 1.65 1.65 1.65h10.5c.9112 0 1.65-.7387 1.65-1.65V4.55a.65.65 0 0 0-.1846-.4537L12.002 1.3124a.65.65 0 0 0-.4655-.1963m-8.7866 1.3a.35.35 0 0 0-.35.35v10.4678a.35.35 0 0 0 .35.35h1.3457V8.8796c0-.5799.47-1.05 1.05-1.05h5.6605c.5799 0 1.05.4701 1.05 1.05v4.7042h1.3938a.35.35 0 0 0 .35-.35V4.8143l-2.3375-2.3982h-.1458v1.8884c0 .58-.4701 1.05-1.05 1.05h-4.921c-.58 0-1.05-.47-1.05-1.05V2.4161zm2.6457 0h4.421v1.6385h-4.421zm0 6.7136v4.4542h5.1605V9.1296z"/></svg>
